src/assets/img/favicon.svg

<svg xmlns="http://www.w3.org/2000/svg" width="64" height="64" fill="none" viewBox="0 0 400 400"><g stroke="#639e8b" stroke-linecap="round" stroke-linejoin="round" stroke-opacity=".9" stroke-width="16"><path d="M74 211.658c25.046-69.407 81.836-124.527 152.717-102.893 49.46 15.096 28.711 43.227 47.931 61.721 10.844 8.343 40.285-2.855 47.9 7.561 6.732 9.212 1.868 26.018 0 37.05-7.369 43.5-57.235 49.903-99.483 49.903"/><path d="M325 194c-3.482-6.608-11.428-12.786-21-18M132.242 181.22c-2.514 13.688-41.269 106.923-1.147 114.866 74.513 10.644 65.57-74.115 65.57-127.086M234 168v5"/></g></svg>

<!DOCTYPE svg PUBLIC "-//W3C//DTD SVG 1.1//EN" "http://www.w3.org/Graphics/SVG/1.1/DTD/svg11.dtd">
<!-- Uploaded to: SVG Repo, www.svgrepo.com, Transformed by: SVG Repo Mixer Tools -->
<svg width="64px" height="64px" viewBox="0 0 400 400" fill="none" xmlns="http://www.w3.org/2000/svg">
<g id="SVGRepo_bgCarrier" stroke-width="0"/>
<g id="SVGRepo_tracerCarrier" stroke-linecap="round" stroke-linejoin="round"/>
<g id="SVGRepo_iconCarrier"> <path d="M74 211.658C99.0457 142.251 155.836 87.1314 226.717 108.765C276.177 123.861 255.428 151.992 274.648 170.486C285.492 178.829 314.933 167.631 322.548 178.047C329.28 187.259 324.416 204.065 322.548 215.097C315.179 258.597 265.313 265 223.065 265" stroke="#639e8b" stroke-opacity="0.9" stroke-width="16" stroke-linecap="round" stroke-linejoin="round"/> <path d="M325 194C321.518 187.392 313.572 181.214 304 176" stroke="#639e8b" stroke-opacity="0.9" stroke-width="16" stroke-linecap="round" stroke-linejoin="round"/> <path d="M132.242 181.22C129.728 194.908 90.9731 288.143 131.095 296.086C205.608 306.73 196.665 221.971 196.665 169" stroke="#639e8b" stroke-opacity="0.9" stroke-width="16" stroke-linecap="round" stroke-linejoin="round"/> <path d="M234 168V173" stroke="#639e8b" stroke-opacity="0.9" stroke-width="16" stroke-linecap="round" stroke-linejoin="round"/> </g>
</svg>
